packages/kaspersky-hexa-ui-icons/src/iconsSVGs/24/ArrowDownMini.svg

<svg width="24" height="24" viewBox="0 0 24 24" fill="none" xmlns="http://www.w3.org/2000/svg">
<path fill-rule="evenodd" clip-rule="evenodd" d="M8.07261 9.62294C8.46868 9.23804 9.10178 9.2471 9.48668 9.64317L11.9965 12.2259L14.5139 9.64222C14.8994 9.24666 15.5325 9.23844 15.928 9.62386C16.3236 10.0093 16.3318 10.6424 15.9464 11.038L12.7118 14.3576C12.5234 14.551 12.2649 14.66 11.9949 14.6598C11.725 14.6596 11.4666 14.5503 11.2784 14.3567L8.05238 11.037C7.66748 10.6409 7.67654 10.0078 8.07261 9.62294Z" fill="black"/>
</svg>

<svg xmlns="http://www.w3.org/2000/svg" width="24" height="24" fill="none" viewBox="0 0 24 24"><path fill="#000" fill-rule="evenodd" d="M8.0726 9.623c.396-.385 1.0292-.3759 1.414.0202l2.5099 2.5827 2.5174-2.5837c.3855-.3955 1.0186-.4038 1.4141-.0183.3956.3854.4038 1.0185.0184 1.4141l-3.2346 3.3196a.9997.9997 0 0 1-1.4334-.0009l-3.226-3.3197c-.385-.3961-.3759-1.0292.0202-1.414"/></svg>
